X: 21352
T: the Beam of joy
%R: reel
B: James Oswald "The Caledonian Pocket Companion" v.2 p.135 #2
Z: 2018 John Chambers <jc:trillian.mit.edu>
M: C|
L: 1/8
K: G
|: "_Lively"\
G3A (Bd)(Ac) | (Bd)(Ac) {c}B2(AG) | B3c (dg)(Bc) | d2(cB) (B2A)z |\
G3A (Bd)(Ac) | (Bd)(ef) (gf)(ed) | (cB)(ed) (fg)(Ac) | (BA)(GF) G4 :|
|:\
d2(e^c) d2(e^c) | (df)(af) (dA) (FD) | (FA)(BA) (FA)(BA) | (dB)(ge) (d2^c)z |\
d3e (fa)(eg) | (fa)(eg) Tf2(ec) | B3d (AB)(db) | (af)(ge) d4 |
G3A (Bd)(Ac) | (Bd)(Ac) {c}B2(AG) | B3c (dg)(Bc) | d2(cB) (B2A)z |\
d2(gf) (ed)(cB) | (AG)(AB) (cB)(AG) | E2(GA) B2(gd) | (ec)(BA) G4 :|
